X: 78
T:Lord Randell's Blade
M:2/4
L:1/8
S:Middleton Collection
R:March
B:||
K:D
A|: D&gt;E FB|AFFB|AF G/F/E/D/|CE EF|D&gt;E FB|AB/c/ dc/B/|A/B/A/F/ E/B/A/G/|A
DD:|!
A|: d&gt;c e/d/c/B/|AFFA|d&gt;c BdcB|FB Bd|AB/c/ d/c/d/e/|f/e/d/c/ dc/B/|A/B/A
/F/ E/B/A/G/|FDD:||

